X:1
T: The Penniless Traveller
C:
R:Jig
Q:180
K:C
M:6/8
L:1/16
|:G2|G2c2c2 c2B2A2|G2A2G2 G2E2F2|G2c2c2 c4d2|e2c2A2 A4G2|
G2c2c2 c2B2A2|G2A2G2 G2E2F2|G2c2c2 B2d2f2|e2c2c2 c4:|
|:ef|g2e2c2 c2B2c2|A2F2F2 F4fg|a2f2d2 d2e2c2|B2G2G2 G4G2|
G2c2c2 c2B2A2|G2A2G2 G2E2F2|G2c2c2 B2d2g2|e2c2c2 c4:|
